X:242
T:Miss Thornton's
Z: id:dc-reel-222
M:C
L:1/8
K:G Major
BA|G2Bd gdBd|cBAB cedc|BGAF GBdg|ecAF GFED|!
G2Bd gdBd|cBAB cedc|BGAF GBdg|ecAF G2:|!
ga|b2ag b2ag|egdg egdg|b2ag b2ag|egfa gfga|!
bgag bgag|egdg egdg|bgaf gfed|egfa g2:|!

